X:1
T:A minor James P. Carrell, 1821
T:Charles Wesley, 1745 Nativity Hymns No. 18     88. 88. 88. 88. (L. M. D.)
T:Bethlehem
T:Transcribed from Songs of Zion, 1821
%%score [ 1 2 3 4 ]
L:1/8
Q:1/4=150
M:3/2
K:C
V:1 treble nm="Tr." snm="Tr."
V:2 treble nm="C." snm="C."
V:3 treble-8 nm="T." snm="T."
V:4 bass nm="B." snm="B."
V:1
"^1. All    glory     to      God  in  the sky,  And  peace  upon  earth   be  re–stored!    O   Je–sus,   ex    –     al–ted  on  high,   Ap–pear  our  om –\n2. When thou in our flesh didst appear,  All  nature  acknowledged  thy  birth;    A – rose  the  ac – cep – ta – ble  year,   And  hea-ven  was" A4 | %1
 A4 A4 B4 | c4 c4 d4 | e8 B4 | c4 A4 G4 | A4 c4 B4 | A8 c4 | e4 e4 (c2 B2) | A4 d4 f4 | e8 e4 | %10
 c4 d4 e4 | %11
"^1. – ni–po–tent  Lord:       Who  meanly  in   Bethlehem born,  Didst stoop to redeem a  lost  race,  Once more to thy creatures return, And\n2.  o–pened  on   earth:        Re – cei–ving  its  Lord   from  a–bove,  The world was united to bless   The  giver  of  concord  and love,   The" A4 (G3 A) B4 | %12
 c12 | z8 (c2 B2) | A4 A4 (B3 c) | d4 c4 d4 | e8 d4 | c4 B4 c4 | A4 G4 F4 | E8 B4 | c4 A4 d4 | %21
 e4 d4 c4 | B8 B4 | %23
"^1. reign in thy king – dom   of     grace.\n2.  Prince and  the  au–thor  of    peace." c4 A4 A4 | %24
 G4 (G3 A) B4 | A12 |] %26
V:2
"^3. O wouldst thou again be made known,  A– gain  in  thy  Spi–rit  de–scend,    And  set  up  in   each  of  thine  own,   A  king–dom  that" E4 | %1
 E4 A4 (G2 F2) | E4 G4 G4 | A8 G4 | A4 E4 E4 | A4 A4 (G2 F2) | E8 E4 | E4 E4 (3(E2 F2 G2) | %8
 A4 G4 A4 | G8 E4 | E4 D4 E4 | %11
"^3. ne–ver  shall   end!           Thou   on – ly   art        a  –  ble   to  bless,   And make the glad nations obey,  And bid the dire enmity cease,  And" A4 G4 E4 | %12
 E12 | z8 (A2 G2) | A4 A4 E4 | D4 (G3 F) E4 | E8 A4 | G4 G4 E4 | A4 E4 F4 | G8 G4 | E4 E4 D4 | %21
 E4 G4 A4 | B8 (B3 A) |"^3. bow the whole world to   thy   sway." G4 E4 A4 | G4 E4 E4 | E12 |] %26
V:3
"^4. Come  then  to  thy  servants  again,  Who  long  thy   appearing   to  know,   Thy  quiet   and          peaceable    reign    In   mercy   es  –\n5. No  hor – rid  a –  la – rum  of  war     Shall   break  our  e–ter–nal  re –pose;    No   sound  of  the   trumpet  is  there,  Where  Je–su–s’s" e4 | %1
 c4 A4 G4 | A4 c4 B4 | A8 e4 | f4 e4 (d2 c2) | d4 c4 d4 | e8 c4 | A4 A4 (c2 d2) | e4 d4 c4 | %9
 B8 A4 | G4 A4 e4 | %11
"^4. –tab–lish  be– low:           All   sor–row  be – fore   thee     shall   fly,   And anger and  hatred be o’er,  And  envy and  malice  shall  die,   And\n5. Spi–rit   o’erflows:            Ap–peased by the charms of  thy  grace    We  all  shall  in  a – mity  join,  And kindly each other embrace,    And" c4 (B3 A) G4 | %12
 A12 | z8 (c2 d2) | e4 c4 B4 | A4 (E3 F) G4 | c8 A4 | c4 d4 e4 | d4 c4 A4 | B8 G4 | A4 c4 A4 | %21
 c4 d4 f4 | e8 d4 | %23
"^4. discord  af–flict     us        no     more.\n5. love with a  pas – sion     like   thine." e4 e4 c4 | %24
 (d3 c) (B3 A) G4 | A12 |] %26
V:4
 A,,4 | C,4 D,4 E,4 | A,4 E,4 E,4 | A,,8 E,4 | C,4 C,4 (B,,2 C,2) | D,4 E,4 D,4 | E,8 E,4 | %7
 A,4 A,4 (G,2 F,2) | E,4 F,4 F,4 | E,8 A,,4 | C,4 D,4 (C,3 D,) | E,4 E,4 E,4 | A,,12 | %13
 z8 (E,2 D,2) | C,4 A,,4 E,4 | D,4 C,4 B,,4 | C,8 D,4 | C,4 B,,4 C,4 | D,4 E,4 A,4 | G,8 E,4 | %20
 A,4 E,4 D,4 | C,4 G,4 F,4 | E,8 G,4 | E,4 E,4 C,4 | D,4 E,4 E,4 | A,,12 |] %26

